src/16/panel/dropboxstatus-x.svg

<svg xmlns="http://www.w3.org/2000/svg" width="16" height="16" version="1.1">
 <defs>
  <style id="current-color-scheme" type="text/css">
   .ColorScheme-Text { color:#dfdfdf; } .ColorScheme-Highlight { color:#4285f4; }
  </style>
 </defs>
 <path style="fill:currentColor" class="ColorScheme-Text" d="M 4.4472656 1 L 4.4492188 1.0039062 L 0.0078125 3.5078125 L 4 5.9863281 L 0 9.0039062 L 4.4492188 11.5 L 8 9.0097656 L 4 6 L 8 3.5078125 L 12 6.0136719 L 10.263672 7.3144531 A 5 5 0 0 1 12 7 A 5 5 0 0 1 13.792969 7.3378906 L 12 5.9960938 L 15.990234 3.5058594 L 11.550781 1 L 8 3.4921875 L 4.4472656 1 z M 12 8 C 9.791 8 8 9.7909998 8 12 C 8 14.209 9.791 16 12 16 C 14.209 16 16 14.209 16 12 C 16 9.7909998 14.209 8 12 8 z M 15.970703 8.9667969 A 5 5 0 0 1 15.990234 8.9960938 L 16 8.9902344 L 15.970703 8.9667969 z M 10.357422 9.6328125 L 10.353516 9.6464844 L 12 11.292969 L 13.646484 9.6464844 L 14.353516 10.353516 L 12.707031 12 L 14.353516 13.646484 L 13.646484 14.353516 L 12.003906 12.693359 L 10.357422 14.339844 L 9.6503906 13.632812 L 11.296875 11.986328 L 9.6503906 10.339844 L 10.357422 9.6328125 z M 7.2128906 10.5625 L 4.4492188 12.501953 L 3.5605469 12.003906 L 3.5605469 12.375 L 8 15 L 8.0058594 14.998047 A 5 5 0 0 1 7 12 A 5 5 0 0 1 7.2128906 10.5625 z"/>
</svg>

<svg xmlns="http://www.w3.org/2000/svg" width="16" height="16"><defs><style id="current-color-scheme" type="text/css">.ColorScheme-Text{color:#dfdfdf;}.ColorScheme-Highlight{color:#5294e2;}</style></defs><defs><style id="current-color-scheme" type="text/css"></style></defs><path d="M4.447 1l.002.004L.008 3.508 4 5.986 0 9.004 4.45 11.5 8 9.01 4 6l4-2.492 4 2.506-1.736 1.3A5 5 0 0 1 12 7a5 5 0 0 1 1.793.338L12 5.996l3.99-2.49L11.55 1 8 3.492 4.447 1zM12 8a4 4 0 1 0 0 8 4 4 0 0 0 0-8zm3.97.967a5 5 0 0 1 .02.03L16 8.99l-.03-.023zm-5.613.666l-.003.013L12 11.293l1.646-1.647.708.708L12.707 12l1.647 1.646-.708.708-1.642-1.66-1.647 1.646-.707-.707 1.647-1.647L9.65 10.34l.707-.707zm-3.144.93l-2.764 1.939-.888-.498v.371L8 15l.006-.002A5 5 0 0 1 7 12a5 5 0 0 1 .213-1.438z" fill="currentColor" class="ColorScheme-Text"/></svg>
